src/assets/duotone/VolumeLow.svg

<svg width="24" height="24" viewBox="0 0 24 24"  xmlns="http://www.w3.org/2000/svg">
<path d="M22 12.75H18C17.59 12.75 17.25 12.41 17.25 12C17.25 11.59 17.59 11.25 18 11.25H22C22.41 11.25 22.75 11.59 22.75 12C22.75 12.41 22.41 12.75 22 12.75Z" />
<path opacity="0.4" d="M15.75 7.40997V16.59C15.75 18.31 15.13 19.6 14.02 20.22C13.57 20.47 13.07 20.59 12.55 20.59C11.75 20.59 10.89 20.32 10.01 19.77L7.09 17.94C6.89 17.82 6.66 17.75 6.43 17.75H5.5V6.24997H6.43C6.66 6.24997 6.89 6.17997 7.09 6.05997L10.01 4.22997C11.47 3.31997 12.9 3.15997 14.02 3.77997C15.13 4.39997 15.75 5.68997 15.75 7.40997Z" />
<path d="M5.5 6.25V17.75H5C2.58 17.75 1.25 16.42 1.25 14V10C1.25 7.58 2.58 6.25 5 6.25H5.5Z" />
</svg>

<?xml version="1.0" encoding="UTF-8"?>
<svg width="24" height="24" viewBox="0 0 24 24" xmlns="http://www.w3.org/2000/svg">
 <path d="m22 12.75h-4c-0.41 0-0.75-0.34-0.75-0.75s0.34-0.75 0.75-0.75h4c0.41 0 0.75 0.34 0.75 0.75s-0.34 0.75-0.75 0.75z"/>
 <path d="m15.75 7.41v9.18c0 1.72-0.62 3.01-1.73 3.63-0.45 0.25-0.95 0.37-1.47 0.37-0.8 0-1.66-0.27-2.54-0.82l-2.92-1.83c-0.2-0.12-0.43-0.19-0.66-0.19h-0.93v-11.5h0.93c0.23 0 0.46-0.07 0.66-0.19l2.92-1.83c1.46-0.91 2.89-1.07 4.01-0.45 1.11 0.62 1.73 1.91 1.73 3.63z" opacity=".4"/>
 <path d="m5.5 6.25v11.5h-0.5c-2.42 0-3.75-1.33-3.75-3.75v-4c0-2.42 1.33-3.75 3.75-3.75h0.5z"/>
</svg>
